packages/core/src/svgs/tokens/branded/SPELL.svg

<svg width="24" height="24" viewBox="0 0 24 24" fill="none" xmlns="http://www.w3.org/2000/svg">
<path d="M8.98584 5.80713H11.1429V6.19285H8.98584V5.80713Z" fill="#FEAD33"/>
<path d="M6.76416 8.85712H8.85703V9.62145H6.76416V8.85712Z" fill="#3835C1"/>
<path d="M8.85693 8.85712H9.62123V9.62145H8.85693V8.85712Z" fill="#615EE8"/>
<path d="M8.85693 9.62146H9.62123V10.3856H8.85693V9.62146ZM9.62123 10.3786H10.3856V11.1428H9.62123V10.3786ZM10.3784 11.1428H11.1426V11.9071H10.3784V11.1428ZM11.1426 11.9071H11.9069V12.6715H11.1426V11.9071ZM11.9069 12.6643H12.6712V13.4286H11.9069V12.6643ZM12.6641 13.4286H13.4284V14.1928H12.6641V13.4286ZM13.4284 14.1928H14.1926V14.9571H13.4284V14.1928ZM14.1926 14.95H14.9569V15.7143H14.1926V14.95ZM14.9497 15.7143H15.7141V16.4786H14.9497V15.7143ZM15.7141 16.4786H16.4784V17.2428H15.7141V16.4786ZM16.4784 17.2356H17.2426V18H16.4784V17.2356ZM17.2356 18H17.9997V18.7643H17.2356V18ZM17.9997 18.7643H18.7641V19.5286H17.9997V18.7643Z" fill="#3835C1"/>
<path d="M19.5206 19.5215H20.2849V20.2856H19.5206V19.5215ZM20.2849 20.2856H21.0491V21.05H20.2849V20.2856ZM9.62061 9.62146H10.3849V10.3856H9.62061V9.62146Z" fill="#615EE8"/>
<path d="M10.3789 10.3787H11.1431V11.1428H10.3789V10.3787ZM11.1431 11.1428H11.9074V11.9072H11.1431V11.1428ZM11.9074 11.9072H12.6717V12.6715H11.9074V11.9072Z" fill="#615EE8"/>
<path d="M12.6641 12.6642H13.4284V13.4286H12.6641V12.6642ZM13.4284 13.4286H14.1926V14.1927H13.4284V13.4286ZM14.1926 14.1927H14.9569V14.9571H14.1926V14.1927Z" fill="#615EE8"/>
<path d="M14.9507 14.95H15.715V15.7143H14.9507V14.95ZM15.715 15.7143H16.4794V16.4787H15.715V15.7143ZM16.4794 16.4787H17.2435V17.2428H16.4794V16.4787Z" fill="#615EE8"/>
<path d="M17.2358 17.2356H18V17.9999H17.2358V17.2356ZM18 17.9999H18.7643V18.7643H18V17.9999ZM18.7643 18.7643H19.5287V19.5286H18.7643V18.7643Z" fill="#615EE8"/>
<path d="M18.7642 19.5214H19.5285V20.2855H18.7642V19.5214ZM19.5213 20.2855H20.2857V21.0499H19.5213V20.2855Z" fill="#3835C1"/>
<path d="M10.3789 9.62146H11.1431V10.3856H10.3789V9.62146ZM11.1431 10.3786H11.9074V11.1428H11.1431V10.3786ZM11.9074 11.1428H12.6717V11.9071H11.9074V11.1428ZM12.6646 11.9071H13.4289V12.6715H12.6646V11.9071ZM13.4289 12.6643H14.1931V13.4286H13.4289V12.6643ZM14.1931 13.4286H14.9574V14.1928H14.1931V13.4286ZM14.9502 14.1928H15.7146V14.9571H14.9502V14.1928ZM15.7146 14.95H16.4789V15.7143H15.7146V14.95ZM16.4789 15.7143H17.2431V16.4786H16.4789V15.7143ZM17.2361 16.4786H18.0002V17.2428H17.2361V16.4786ZM18.0002 17.2356H18.7646V18H18.0002V17.2356ZM18.7646 18H19.5289V18.7643H18.7646V18ZM19.5217 18.7643H20.2861V19.5286H19.5217V18.7643ZM20.2861 19.5215H21.0503V20.2856H20.2861V19.5215ZM21.0503 20.2856H21.8146V21.05H21.0503V20.2856Z" fill="#7774F9"/>
<path d="M21.0508 21.05H21.8151V21.8144H21.0508V21.05Z" fill="#615EE8"/>
<path d="M20.2861 21.05H21.0503V21.8144H20.2861V21.05Z" fill="#3835C1"/>
<path d="M9.62061 8.85712H10.3849V9.62145H9.62061V8.85712Z" fill="#7774F9"/>
<path d="M8.85693 8.85707V6.57135H9.62123V8.85707H8.85693Z" fill="#7C79F7"/>
<path d="M2 2H8.28572V8.28566H4.47859V8.85716H6.76429V9.62149H8.85716V10.3787H8.66429V9.80716H6.57144V9.04999H4.28572V8.28566H2V2ZM9.62146 6.57144H9.80712V8.66432H10.5715V9.62149H10.3786V8.85716H9.62146V6.57144ZM8.85716 6.57144H9.80712V6.37857H9.04996V4.09287H8.28572V4.28572H8.85716V6.57144ZM11.9071 10.3787V11.1428H12.0928V10.1928H11.3358V9.42866H10.5715V9.62149H11.1428V10.3787H11.9071ZM12.6643 11.9072V11.1428H12.0928V10.95H12.8571V11.7143H13.6215V12.4787H14.3786V13.2357H15.1428V14.1928H14.95V13.4287H14.1928V12.6643H13.4286V11.9072H12.6643ZM15.1428 14H15.9071V14.7643H16.6643V15.5215H17.4286V16.2857H18.1928V17.2357H18V16.4787H17.2358V15.7143H16.4786V14.95H15.7143V14.1928H15.1428V14ZM18.95 18V17.8072H19.7143V18.5715H20.4786V19.3357H21.2358V20.0928H22V21.05H21.8071V20.2857H21.05V19.5215H20.2858V18.7643H19.5215V18H18.95ZM9.42862 10.5715H8.66429V10.3787H9.62146V11.1428H10.3786V11.9072H10.1928V11.3357H9.42862V10.5715ZM11.1428 12.6643V11.9072H10.1928V12.0928H10.95V12.8572H11.7143V13.4287H11.9071V12.6643H11.1428ZM12.4786 14.3787V13.6215H11.7143V13.4287H12.6643V14.1928H13.4286V14.95H13.2358V14.3787H12.4786ZM14 15.1428V15.9072H14.7643V16.4787H14.95V15.7143H14.1928V14.95H13.2358V15.1428H14ZM15.7143 17.2357H16.4786V18H16.2858V17.4287H15.5215V16.6643H14.7643V16.4787H15.7143V17.2357ZM17.05 18.1928V18.95H17.8071V19.5215H18V18.7643H17.2358V18H16.2858V18.1928H17.05ZM18.7643 19.5215H17.8071V19.7143H18.5715V20.4787H19.3358V21.05H19.5215V20.2857H18.7643V19.5215ZM20.2858 21.8072V21.05H19.3358V21.2357H20.0928V22H22V21.05H21.8071V21.8072H20.2858ZM18.1928 17.2357H18.7643V18H18.95V17.05H18.1928V17.2357Z" fill="#B9B8EF"/>
<path d="M6.57178 10H6.76463V10.1929H6.57178V10ZM6.57178 9.80719H6.76463V10H6.57178V9.80719Z" fill="#FEF1B5"/>
<path d="M9.807 7.33569V8.66429H10.5713V9.42863H11.3357V10.1928H12.4785V8.09279H11.7142V7.33569H9.807ZM8.66416 9.80713H6.76416V11.1428H7.14274V11.5215H8.66416V13.05H8.47846V13.2356H10.3785V12.8571H10.9498V12.0928H10.1927V11.3356H9.4285V10.5715H8.66416V9.80713ZM8.66416 11.5215H7.33559V12.0928H7.71416V12.6643H8.09274V13.05H8.66416V11.5215ZM12.2857 10.5715H12.4785V10.95H12.2857V10.5715Z" fill="white"/>
<path d="M8.85708 2.95007H8.28564V3.71436H8.85708V3.52151H9.23571V3.14294H8.85708V2.95007Z" fill="#FED855"/>
<path d="M11.1431 3.14294H11.5217V3.34294H11.7146V3.74295H10.3789V3.34294H11.1431V3.14294ZM11.8789 3.74295H10.9289V4.14295H11.8789V3.74295Z" fill="#C3925C"/>
<path d="M15.2144 4.85706H15.9287V5.57134H15.2144V4.85706Z" fill="#E6C454"/>
<path d="M16.6421 11.2856H17.3564V12.7143H16.6421V11.2856Z" fill="#FED955"/>
<path d="M3.14258 8.66425H3.52115V9.04991H3.14258V8.66425Z" fill="#FECE4D"/>
<path d="M3.44323 9.04993H2.76465V9.42859H3.44323V9.04993ZM3.78608 9.42859H3.44323V9.80709H3.78608V9.42859ZM3.44323 9.42859V10.5714H3.10037V10.1928H2.76465V9.42859H3.44323Z" fill="#FFDF5F"/>
<path d="M2.76465 8.28558V9.04992H3.14323V8.66425H3.5218V8.28558H2.76465ZM3.90752 8.66425H3.5218V9.04992H3.90752V8.66425Z" fill="#FEB63A"/>
<path d="M6.19336 9.23553H6.00049V9.99987H6.37907V10.1927H6.57192V9.42853H6.19336V9.23553Z" fill="#FEAD33"/>
<path d="M6.00007 9.04993V9.23559H5.62151V9.42859H5.21436V9.04993H6.00007ZM6.00007 9.04993V9.23559H6.19294V9.42859H6.57151V9.04993H6.00007Z" fill="#FEDC6A"/>
<path d="M6.19287 9.99988H6.38572V10.1927H6.19287V9.99988Z" fill="#FEEB95"/>
<path d="M5.80777 9.80719H6.00062V10H6.19348V10.5715H5.4292V10H5.80777V9.80719ZM6.19348 11.1429V10.5715H5.80777V11.1429H6.19348Z" fill="#FED855"/>
<path d="M5.21436 12.4787H6.00007V13.2357H6.19294V13.6215H5.42866V13.2357H5.21436V12.4787Z" fill="#C3925C"/>
<path d="M4.5 14.1428H5.21428V14.8571H4.5V14.1428Z" fill="#FFDF5F"/>
<path d="M6.19285 11.1428H5.80713V12.5215H6.19285V12.7143H6.57141V11.9072H6.19285V11.1428Z" fill="#FEAE34"/>
<path d="M6.57178 12.0928H7.14321V12.7143H6.57178V12.0928Z" fill="#FEAE34"/>
<path d="M6.76429 10.1927H6.19287V11.9071H6.57144V12.0927H7.33572V11.5214H7.14287V11.1427H6.76429V11.5214V10.1927ZM7.71429 12.0927H7.14287V12.4786H7.71429V12.0927Z" fill="#FEEB95"/>
<path d="M7.14307 12.4787V12.7144H7.33592V13.05H7.71448V13.2357H7.90735V12.4787H7.14307ZM7.90735 14.1929H8.47878V14.3787H7.90735V14.1929ZM8.47878 14.3787H9.05015V14.5715H8.47878V14.3787Z" fill="#FEDA5B"/>
<path d="M10.5717 14.95H10.3789V15.5215H10.9502V15.1428H10.5717V14.95ZM11.7146 15.5215H10.3789V15.7143H11.7146V15.5215Z" fill="#FFDA57"/>
<path d="M10.3789 13.8071H10.5717V13.9999H10.3789V13.8071ZM10.3789 13.9999H10.5717V14.1927H10.9502V14.3786H10.3789V13.9999ZM10.7646 14.3786H10.3789V14.9499H10.5717V14.5714H10.7646V14.3786Z" fill="#FEEB95"/>
<path d="M11.7146 12.8571H10.3789V13.8786H11.7146V12.8571Z" fill="#FEEB95"/>
<path d="M10.5723 13.8071H11.9079V13.9999H10.5723V13.8071ZM10.5723 13.9999H11.9079V14.1927H11.7151V14.3786H10.9508V14.1927H10.5723V13.9999ZM10.7651 14.3786H10.9508H11.5223V14.9499H11.1436H10.5723V14.5714H10.7651V14.3786ZM10.9508 15.1427V14.9499H10.5723V15.1427H10.9508ZM11.1436 14.9499H11.3366V15.1427H11.1436V14.9499Z" fill="#FEAE34"/>
<path d="M10.9287 14.1428H12.3572V15.5714H10.9287V14.1428Z" fill="#FED855"/>
<path d="M11.7148 13.6215H12.4792V14H11.9077V13.8071H11.7148V13.6215ZM12.4792 14H11.9077V14.1928H12.4792V14Z" fill="#FED855"/>
<path d="M10.378 14.3785H9.62082V14.5714H9.04932V14.9499H10.378V14.3785ZM10.378 14.9499H9.62082V15.1427H10.378V14.9499Z" fill="#FFD955"/>
<path d="M8.09246 12.6642H7.90674V13.6214H8.07102V14.1927H8.47817V14.3786H10.3782V13.2356H8.47817V13.2427V13.0499H8.09246V12.6642ZM9.62104 14.5714V14.3786H8.85674V14.5714H9.62104Z" fill="#FEEB95"/>
<path d="M14.3794 12.8571H14.9507V13.2356H14.3794V12.8571Z" fill="#F5D052"/>
<path d="M9.04932 4.47845H9.81365V4.85704H9.04932V4.47845Z" fill="#FFDD53"/>
<path d="M9.04932 4.85706H10.9637V5.82847H9.04932V4.85706Z" fill="#FEAE34"/>
<path d="M14.1926 11.1428V11.4071H13.0498V9.42859H14.3785V11.1428H14.1926Z" fill="#FEAD33"/>
<path d="M12.2858 6.19285H12.6643V6.3857H12.2858V6.19285ZM12.2715 5.80713H12.8572V6.19285H12.2715V5.80713Z" fill="#FEAE34"/>
<path d="M11.9072 5.80713H12.2859V6.1857H11.9072V5.80713Z" fill="#FEAE34"/>
<path d="M9.80762 6.19287H11.1433V6.38572H9.80762V6.19287Z" fill="#FEAD33"/>
<path d="M10.5723 6.37848H12.3579V6.57135H10.5723V6.37848ZM10.5723 6.57135H12.3579V6.7642H10.5723V6.57135Z" fill="#FEAD33"/>
<path d="M11.1436 5.80713H11.7151V6.37855H11.1436V5.80713ZM11.7151 5.80713H11.9079V6.37855H11.7151V5.80713Z" fill="#FEE890"/>
<path d="M12.8574 5.80713H13.0503V6.1857H12.8574V5.80713ZM13.0503 5.80713H13.4289V6.1857H13.0503V5.80713Z" fill="#FED855"/>
<path d="M11.9072 6.19287H12.2859V6.38572H11.9072V6.19287Z" fill="#FEE890"/>
<path d="M15.2146 9.14276H15.9289V9.85709H15.2146V9.14276ZM12.8574 11.2856H13.8074V11.7143H12.8574V11.2856Z" fill="#FEEB95"/>
<path d="M15.2142 9.42853H14.3785V11.1427H14.1927V11.2855H13.807V11.7142H13.9999V11.907H14.3785V11.7142H14.7642V11.3355H15.2142V9.42853ZM13.0498 9.23553V10.2142H12.4785V9.23553H13.0498Z" fill="#FEEB95"/>
<path d="M10.3789 4.85706H11.9074V5.04991H12.2861V5.80706H10.7646V5.42847H10.5717V5.04991H10.3789V4.85706Z" fill="#FED855"/>
<path d="M12.2861 5.04993H12.8575V5.42849H13.0503V5.80708H12.2861V5.04993Z" fill="#FED855"/>
<path d="M9.04932 6.19287H9.81365V6.38572H9.04932V6.19287Z" fill="#FEEB94"/>
<path d="M13.622 6.19287H12.6648V6.37857H12.2863V6.76429H10.572V6.37857H9.80762V7.33572H11.7148V8.09282H12.4791V9.49999H13.622V8.66432H14.1933V6.76429H13.622V7.71429V6.19287Z" fill="#FEEB94"/>
<path d="M12.0928 10.1927H12.4786V10.9499H12.0928V10.1927Z" fill="white"/>
<path d="M2.19336 2.19287H8.1005V8.09999H2.19336V2.19287Z" fill="#7C79F7"/>
<path d="M2.9502 2.95007H7.52163V7.32864H2.9502V2.95007Z" fill="#9695F8"/>
<path d="M4.47852 3.71423H7.52852V4.47852H4.47852V3.71423Z" fill="#7C79F7"/>
<path d="M7.52102 3.89984V5.80699H6.75674V3.89984H7.52102ZM4.47102 4.47841V6.76413H3.71387V4.47841H4.47102Z" fill="#7C79F7"/>
<path d="M2.94983 6.75708V8.09275H2.18555V6.75708H2.94983ZM5.0427 8.09992H2.94983V7.33565H5.0427V8.09992ZM7.52842 8.09992H6.76412V7.33565H7.52842V8.09992Z" fill="#3835C1"/>
<path d="M5.99958 6.57135V7.33563H3.71387V6.57135H5.99958Z" fill="#7C79F7"/>
<path d="M7.52161 6.57135V7.33563H6.75732V6.57135H7.52161Z" fill="#615EE8"/>
<path d="M5.23584 5.04993H6.00012V5.81421H5.23584V5.04993ZM6.00012 5.80708H7.52156V6.57136H6.00012V5.80708ZM6.00012 6.57136H6.76441V7.33565H6.00012V6.57136Z" fill="#C6C6FF"/>
<path d="M7.521 7.33569H8.85671V8.85713H7.521V7.33569Z" fill="#615EE8"/>
<path d="M4.47852 8.0929H7.52852V8.85723H4.47852V8.0929Z" fill="#3835C1"/>
<path d="M8.1001 7.33559V4.28558H8.8644V7.33559H8.1001Z" fill="#7C79F7"/>
</svg>

<svg xmlns="http://www.w3.org/2000/svg" width="24" height="24" fill="none" viewBox="0 0 24 24">
    <path fill="#FEAD33" d="M8.986 5.807h2.157v.386H8.986z"/>
    <path fill="#3835C1" d="M6.764 8.857h2.093v.764H6.764z"/>
    <path fill="#615EE8" d="M8.857 8.857h.764v.764h-.764z"/>
    <path fill="#3835C1" d="M8.857 9.621h.764v.765h-.764zm.764.758h.765v.764H9.62zm.757.764h.765v.764h-.765zm.765.764h.764v.765h-.764zm.764.757h.764v.765h-.764zm.757.765h.764v.764h-.764zm.764.764h.765v.764h-.765zm.765.757h.764v.764h-.764zm.757.764h.764v.765h-.764zm.764.765h.764v.764h-.764zm.764.757h.765V18h-.765zm.758.764H18v.764h-.764zm.764.764h.764v.765H18z"/>
    <path fill="#615EE8" d="M19.52 19.522h.765v.764h-.764zm.765.764h.764v.764h-.764zM9.62 9.62h.764v.765H9.62z"/>
    <path fill="#615EE8" d="M10.379 10.379h.764v.764h-.764zm.764.764h.764v.764h-.764zm.764.764h.765v.765h-.765z"/>
    <path fill="#615EE8" d="M12.664 12.664h.764v.765h-.764zm.764.765h.765v.764h-.765zm.765.764h.764v.764h-.764z"/>
    <path fill="#615EE8" d="M14.95 14.95h.765v.764h-.764zm.765.764h.764v.765h-.764zm.764.765h.765v.764h-.765z"/>
    <path fill="#615EE8" d="M17.236 17.236H18V18h-.764zM18 18h.764v.764H18zm.764.764h.765v.765h-.765z"/>
    <path fill="#3835C1" d="M18.764 19.521h.765v.764h-.765zm.757.764h.765v.765h-.765z"/>
    <path fill="#7774F9" d="M10.379 9.621h.764v.765h-.764zm.764.758h.764v.764h-.764zm.764.764h.765v.764h-.765zm.758.764h.764v.765h-.764zm.764.757h.764v.765h-.764zm.764.765h.764v.764h-.764zm.757.764h.765v.764h-.765zm.765.757h.764v.764h-.764zm.764.764h.764v.765h-.764zm.757.765H18v.764h-.764zm.764.757h.765V18H18zm.765.764h.764v.764h-.764zm.757.764h.764v.765h-.764zm.764.758h.764v.764h-.764zm.764.764h.765v.764h-.765z"/>
    <path fill="#615EE8" d="M21.05 21.05h.765v.764h-.764z"/>
    <path fill="#3835C1" d="M20.286 21.05h.764v.764h-.764z"/>
    <path fill="#7774F9" d="M9.62 8.857h.765v.764H9.62z"/>
    <path fill="#7C79F7" d="M8.857 8.857V6.571h.764v2.286z"/>
    <path fill="#B9B8EF" d="M2 2h6.286v6.286H4.479v.571h2.285v.764h2.093v.758h-.193v-.572H6.571V9.05H4.286v-.764H2zm7.621 4.571h.186v2.093h.765v.957h-.193v-.764H9.62zm-.764 0h.95V6.38H9.05V4.093h-.764v.193h.571zm3.05 3.808v.764h.186v-.95h-.757v-.764h-.764v.192h.57v.758zm.757 1.528v-.764h-.571v-.193h.764v.764h.765v.765h.757v.757h.764v.957h-.193v-.764h-.757v-.765h-.764v-.757zM15.143 14h.764v.764h.757v.758h.765v.764h.764v.95H18v-.757h-.764v-.765h-.757v-.764h-.765v-.757h-.571zm3.807 4v-.193h.764v.765h.765v.764h.757v.757H22v.957h-.193v-.764h-.757v-.765h-.764v-.757h-.765V18zm-9.521-7.428h-.765v-.193h.957v.764h.758v.764h-.186v-.571h-.764zm1.714 2.092v-.757h-.95v.186h.757v.764h.764v.572h.193v-.765zm1.336 1.715v-.758h-.765v-.192h.95v.764h.765v.757h-.193v-.571zm1.521.764v.764h.764v.572h.186v-.765h-.757v-.764h-.957v.193zm1.714 2.093h.765V18h-.193v-.571h-.765v-.765h-.757v-.185h.95zm1.336.957v.757h.757v.572H18v-.758h-.764V18h-.95v.193zm1.714 1.328h-.957v.193h.765v.765h.764v.571h.186v-.764h-.758zm1.522 2.286v-.757h-.95v.186h.757V22H22v-.95h-.193v.757zm-2.093-4.571h.571V18h.186v-.95h-.757z"/>
    <path fill="#FEF1B5" d="M6.572 10h.193v.193h-.193zm0-.193h.193V10h-.193z"/>
    <path fill="#fff" d="M9.807 7.336v1.328h.764v.765h.765v.764h1.143v-2.1h-.765v-.757zM8.664 9.807h-1.9v1.336h.379v.378h1.521v1.529h-.186v.186h1.9v-.379h.572v-.764h-.757v-.757h-.764v-.764h-.765zm0 1.714H7.336v.572h.378v.571h.379v.386h.571zm3.622-.95h.193v.379h-.193z"/>
    <path fill="#FED855" d="M8.857 2.95h-.571v.764h.571v-.192h.379v-.38h-.379z"/>
    <path fill="#C3925C" d="M11.143 3.143h.379v.2h.193v.4h-1.336v-.4h.764zm.736.6h-.95v.4h.95z"/>
    <path fill="#E6C454" d="M15.214 4.857h.715v.714h-.715z"/>
    <path fill="#FED955" d="M16.642 11.286h.714v1.428h-.714z"/>
    <path fill="#FECE4D" d="M3.143 8.664h.378v.386h-.378z"/>
    <path fill="#FFDF5F" d="M3.443 9.05h-.678v.379h.678zm.343.379h-.343v.378h.343zm-.343 0v1.142H3.1v-.378h-.335v-.764z"/>
    <path fill="#FEB63A" d="M2.765 8.286v.764h.378v-.386h.379v-.378zm1.143.378h-.386v.386h.386z"/>
    <path fill="#FEAD33" d="M6.193 9.236H6V10h.38v.193h.192v-.764h-.379z"/>
    <path fill="#FEDC6A" d="M6 9.05v.186h-.378v.193h-.408v-.38zm0 0v.186h.193v.193h.379v-.38z"/>
    <path fill="#FEEB95" d="M6.193 10h.193v.193h-.193z"/>
    <path fill="#FED855" d="M5.808 9.807H6V10h.192v.572H5.43V10h.379zm.385 1.336v-.572h-.385v.572z"/>
    <path fill="#C3925C" d="M5.214 12.479H6v.757h.193v.385h-.764v-.385h-.215z"/>
    <path fill="#FFDF5F" d="M4.5 14.143h.714v.714H4.5z"/>
    <path fill="#FEAE34" d="M6.193 11.143h-.386v1.378h.386v.193h.378v-.807h-.378zm.379.95h.571v.621h-.571z"/>
    <path fill="#FEEB95" d="M6.764 10.193h-.571v1.714h.378v.186h.765v-.572h-.193v-.378h-.379v.378zm.95 1.9h-.571v.386h.571z"/>
    <path fill="#FEDA5B" d="M7.143 12.479v.235h.193v.336h.378v.186h.193v-.757zm.764 1.714h.572v.186h-.572zm.572.186h.571v.193h-.57z"/>
    <path fill="#FFDA57" d="M10.572 14.95h-.193v.572h.571v-.38h-.378zm1.143.572h-1.336v.192h1.336z"/>
    <path fill="#FEEB95" d="M10.379 13.807h.193V14h-.193zm0 .193h.193v.193h.378v.186h-.571zm.386.379h-.386v.57h.193v-.378h.193z"/>
    <path fill="#FEEB95" d="M11.715 12.857h-1.336v1.022h1.336z"/>
    <path fill="#FEAE34" d="M10.572 13.807h1.336V14h-1.336zm0 .193h1.336v.193h-.193v.186h-.764v-.186h-.379zm.193.379h.757v.57h-.95v-.378h.193zm.186.764v-.193h-.379v.193zm.193-.193h.193v.193h-.193z"/>
    <path fill="#FED855" d="M10.929 14.143h1.428v1.428H10.93z"/>
    <path fill="#FED855" d="M11.715 13.622h.764V14h-.571v-.193h-.193zm.764.378h-.571v.193h.571z"/>
    <path fill="#FFD955" d="M10.378 14.379h-.757v.192h-.572v.379h1.329zm0 .57h-.757v.194h.757z"/>
    <path fill="#FEEB95" d="M8.092 12.664h-.185v.957h.164v.572h.407v.186h1.9v-1.143h-1.9v.007-.193h-.386zm1.529 1.907v-.192h-.764v.192z"/>
    <path fill="#F5D052" d="M14.38 12.857h.57v.379h-.57z"/>
    <path fill="#FFDD53" d="M9.05 4.478h.764v.379h-.765z"/>
    <path fill="#FEAE34" d="M9.05 4.857h1.914v.971H9.049z"/>
    <path fill="#FEAD33" d="M14.193 11.143v.264H13.05V9.43h1.329v1.714z"/>
    <path fill="#FEAE34" d="M12.286 6.193h.378v.193h-.378zm-.014-.386h.585v.386h-.585z"/>
    <path fill="#FEAE34" d="M11.907 5.807h.379v.379h-.379z"/>
    <path fill="#FEAD33" d="M9.808 6.193h1.335v.193H9.808z"/>
    <path fill="#FEAD33" d="M10.572 6.378h1.786v.193h-1.786zm0 .193h1.786v.193h-1.786z"/>
    <path fill="#FEE890" d="M11.144 5.807h.571v.572h-.571zm.571 0h.193v.572h-.193z"/>
    <path fill="#FED855" d="M12.857 5.807h.193v.379h-.193zm.193 0h.379v.379h-.379z"/>
    <path fill="#FEE890" d="M11.907 6.193h.379v.193h-.379z"/>
    <path fill="#FEEB95" d="M15.215 9.143h.714v.714h-.714zm-2.358 2.143h.95v.428h-.95zm2.357-1.857h-.835v1.714h-.186v.143h-.386v.428H14v.193h.379v-.193h.385v-.379h.45zm-2.164-.193v.978h-.572v-.978z"/>
    <path fill="#FED855" d="M10.379 4.857h1.528v.193h.38v.757h-1.522v-.379h-.193V5.05h-.193z"/>
    <path fill="#FED855" d="M12.286 5.05h.572v.378h.192v.38h-.764z"/>
    <path fill="#FEEB94" d="M9.05 6.193h.764v.193h-.765z"/>
    <path fill="#FEEB94" d="M13.622 6.193h-.957v.186h-.379v.385h-1.714V6.38h-.764v.957h1.907v.757h.764V9.5h1.143v-.836h.571v-1.9h-.571v.95z"/>
    <path fill="#fff" d="M12.093 10.193h.386v.757h-.386z"/>
    <path fill="#7C79F7" d="M2.193 2.193h5.908V8.1H2.193z"/>
    <path fill="#9695F8" d="M2.95 2.95h4.572v4.38H2.95z"/>
    <path fill="#7C79F7" d="M4.479 3.714h3.05v.765h-3.05z"/>
    <path fill="#7C79F7" d="M7.521 3.9v1.907h-.764V3.9zm-3.05.578v2.286h-.757V4.478z"/>
    <path fill="#3835C1" d="M2.95 6.757v1.336h-.764V6.757zM5.043 8.1H2.95v-.764h2.093zm2.485 0h-.764v-.764h.764z"/>
    <path fill="#7C79F7" d="M6 6.571v.765H3.714V6.57z"/>
    <path fill="#615EE8" d="M7.522 6.571v.765h-.765V6.57z"/>
    <path fill="#C6C6FF" d="M5.236 5.05H6v.764h-.764zM6 5.807h1.522v.764H6zm0 .764h.764v.765H6z"/>
    <path fill="#615EE8" d="M7.521 7.336h1.336v1.521H7.52z"/>
    <path fill="#3835C1" d="M4.479 8.093h3.05v.764h-3.05z"/>
    <path fill="#7C79F7" d="M8.1 7.336v-3.05h.764v3.05z"/>
</svg>
